X:1
T:Der Zimmergesell
T:Johannes Brahms
T:Der Zimmergesell
T:aus Zwölf Deutsche Volkslieder, WoO 35,11
T:CPDL - Creative Commons Attribution Non Commercial 3.0
T:CPDL - Creative Commons Attribution Non Commercial 3.0
C:Johannes Brahms
Z:CPDL - Creative Commons Attribution Non Commercial 3.0
%%score [ 1 2 3 4 ]
L:1/8
Q:1/4=66
M:2/4
K:C
V:1 treble nm="S"
V:2 treble nm="A"
V:3 treble-8 nm="T"
V:4 bass nm="B"
V:1
"^ad. lib. Solo und Chor"!mf!"^Solo""^Allegro non troppo" E | A(c/c/) BA | A(^G/G/) GE | %3
w: 1.~Es|war ein- * mal ein|Zim- mer- ge- sell, war|
w: 2.~Und|als das _ Haus ge-|bau- et _ war, legt|
w: 3.~Steh|auf, steh _ auf, du|Zim- mer- ge- sell, denn|
 AB c(d/d/) | B2 z A | cB cA | d(d/d/) e2 | z4 | z2 z!f!"^Chor" B | cB c(A/A/) | dd e!p!c | %11
w: gar ein jung frisch _|Blut, er|baut dem jun- gen|Mark- graf ein Haus,||er|baut dem jun- gen Mark-|graf ein Haus, sechs-|
w: er sich nie- der und|schlief. Da|kam des jun- gen|Mark- gra- fen Weib,||da|kam des jun- gen Mark-|gra- fen Weib zum|
w: es ist an der _|Stund; hast|du so wohl ge-|baut das _ Haus,||hast|du so wohl ge- *|baut das Haus, so|
 B(A/A/) ^G(B/B/) | A2 z |] %13
w: hun- dert * La- den hin-|aus.|
w: zwei- ten und drit- ten und|rief:|
w: küss mir _ mei- nen _|Mund.|
V:2
!mf!"^Solo" E | C(C/C/) DE | E(E/E/) EE | EE A(F/F/) | E2 z A | AA AE | G(G/G/) E2 | %7
w: |||||||
"^Chor"!p! A>B cA | ^GF E!f!E | EE E(E/E/) | GG E!p!E | E(E/E/) E(^G/G/) | A2 z |] %13
w: 1.\-6.~Zweif- le nicht, mein|Schatz, mein Kind! *|||||
V:3
!mf!"^Solo" E | E(E/E/) ^GA | c(B/B/) BB | cB A(A/A/) | ^G2 z c | ed ec | B(B/B/) c2 | %7
w: 4.~Und|als er hin- aus- ge-|zo- gen _ war, da|ging er ü- ber die|Heid, da|steht die jun- ge|Mark- grä- * fin,|
w: 5.~Was|zog sie _ aus der|Ta- schen _ schnell? Viel|hun- dert Stü- cke _|Gold! Nimm's|hin, du schö- ner|Jung- ge- * sell,|
w: 6.~Und|wenn dir _ Wein zu|sau- er _ ist, so|trink du Mal- va- *|sier, und|wenn mein Mund dir|sü- ßer _ ist,|
"^Chor"!p! c>d ec | BA ^G!f!G | A^G A(c/c/) | BB c!p!e | d(c/c/) B(d/d/) | c2 z |] %13
w: |* * * da|steht die jun- ge _|Mark- grä- fin in|ih- rem schnee- wei- ßen _|Kleid.|
w: |* * * nimm's|hin, du schö- ner _|Jung- ge- sell, nimm's|hin zu _ dei- nem _|Sold.|
w: |* * * und|wenn mein Mund dir _|sü- ßer ist, so|kom- me _ wie- der zu|mir.|
V:4
!mf!"^Solo" E, | A,,(A,,/A,,/) B,,C, | E,(E,/E,/) E,^G, | A,G, F,(D,/D,/) | E,2 z A, | A,A, A,A, | %6
 G,(G,/G,/) C,2 | z4 | z2 z!f!"^Chor" E, | A,,E, A,,(A,/A,/) | G,G,, C,!p!C, | %11
 E,(E,/E,/) E,(E,/E,/) | A,2 z |] %13

